X: 4
T:Before winter comes
M:4/4
L:1/8
C:M Ota
K:A Dorian
|: e2 ed e2 eg | d2 dB GBdB | d2 dB d2 de | dBGB A4 :|!
|: ABcd e2 g2  | d2 dB GBdB | ABcd e2 eg | dBGB d4 :|!
|: A2 ag a2 ef | gefg efgB | A2 ag a2 ef | gefg  a4 :| !
|: ABcA BcAB | GABc dedc | BcdB cdBc | dBGB A4 :|!
